X:1
T:The Hills of Connemara
M:4/4
L:1/8
K:D
 D3/2 D/2 DD A2 AA| B2 B2 A3 A| D2 z F A2 z F| GG FF E4| D2 FF AA AA|\
 B2 B2 A2 FE| D2 d2 A2 F2| E4 D2 z2|
